icons/checkbox--checked.svg

<svg width="22" height="22" viewBox="0 0 22 22" fill="none" xmlns="http://www.w3.org/2000/svg">
<rect width="22" height="22" rx="6" fill="#176ddd"/>
<path d="M16.077 7.0006C15.8463 7.00762 15.627 7.1059 15.4666 7.27438C13.2724 9.49956 11.2739 11.695 9.14127 13.8869L6.44334 11.7038C6.25954 11.5547 6.0246 11.4862 5.79051 11.5125C5.55643 11.5389 5.3423 11.6582 5.19491 11.8442C4.88801 12.2321 4.95042 12.798 5.33362 13.1077L8.66276 15.8032C9.01736 16.0902 9.52971 16.0603 9.84878 15.7331C12.2347 13.3132 14.3795 10.9272 16.729 8.54503C16.9943 8.28619 17.0732 7.88869 16.9284 7.54562C16.7836 7.20255 16.4446 6.98581 16.077 7.00072L16.077 7.0006Z" fill="white"/>
</svg>

<svg width="22" height="22" fill="none" xmlns="http://www.w3.org/2000/svg"><rect width="22" height="22" rx="6" fill="#176ddd"/><path d="M16.077 7a.88.88 0 00-.61.274c-2.195 2.226-4.193 4.421-6.326 6.613l-2.698-2.183a.88.88 0 00-1.248.14.906.906 0 00.139 1.264l3.329 2.695a.88.88 0 001.186-.07c2.386-2.42 4.53-4.806 6.88-7.188a.905.905 0 00.2-1 .887.887 0 00-.852-.544z" fill="#fff"/></svg>
